img/package.svg

<svg width="24" height="24" viewBox="0 0 24 24" fill="none" xmlns="http://www.w3.org/2000/svg">
<path fill-rule="evenodd" clip-rule="evenodd" d="M12.3714 0.571408L12 0.422852L11.6286 0.571408L1.62861 4.57141L1 4.82285V5.49988V18.4999V19.1769L1.62861 19.4284L11.6286 23.4284L12 23.5769L12.3714 23.4284L22.3714 19.4284L23 19.1769V18.4999V5.49988V4.82285L22.3714 4.57141L12.3714 0.571408ZM3 6.97692V17.8229L11 21.0229V10.1769L3 6.97692ZM13 10.1769V21.0229L21 17.8229V6.97692L13 10.1769ZM19.3074 5.49988L12 2.57692L9.94258 3.39988L17.25 6.32285L19.3074 5.49988ZM4.69258 5.49988L7.25 4.47692L14.5574 7.39988L12 8.42285L4.69258 5.49988Z" fill="black"/>
</svg>

<svg xmlns="http://www.w3.org/2000/svg" width="24" height="24" fill="none" viewBox="0 0 24 24">
  <path stroke="#000" stroke-width="2" fill-rule="evenodd" d="M12.371.572L12 .423l-.371.149-10 4L1 4.823v14.354l.629.252 10 4 .371.148.371-.149 10-4 .629-.251V4.823l-.629-.251-10-4zM3 6.977v10.846l8 3.2V10.177l-8-3.2zm10 3.2v10.846l8-3.2V6.977l-8 3.2zM19.307 5.5L12 2.577 9.943 3.4l7.307 2.923 2.057-.823zm-14.614 0L7.25 4.477 14.557 7.4 12 8.423 4.693 5.5z" clip-rule="evenodd"/>
</svg>
